X:1077
T:Yeo Yeo.
M:C
L:1/4
Q:1/2=40
Z:Jack Campin * www.campin.me.uk * 2009
K:G
d|GdBe|cAAd|GdBe|c2Ad|GdBe|cGAd|GcBd|e2c2|
  g3 e|f2d2|g3 e|f2dz|gBBg|ecce|dcBA|B2G:|

